src/icons/firewall.svg

<?xml version="1.0" encoding="UTF-8"?>
<svg xmlns="http://www.w3.org/2000/svg" xmlns:xlink="http://www.w3.org/1999/xlink" width="32" height="32" viewBox="0 0 32 32" version="1.1">
<g id="surface1">
<path style=" stroke:none;fill-rule:nonzero;fill:rgb(0%,0%,0%);fill-opacity:1;" d="M 2 29 C 2 29.550781 2.449219 30 3 30 L 10 30 L 10 24 L 2 24 Z M 12 24 L 20 24 L 20 30 L 12 30 Z M 22 30 L 29 30 C 29.550781 30 30 29.550781 30 29 L 30 24 L 22 24 Z M 27 16 L 30 16 L 30 22 L 27 22 Z M 2 16 L 5 16 L 5 22 L 2 22 Z M 9.992188 16 L 7 16 L 7 22 L 15 22 L 15 20.730469 C 14.910156 20.679688 14.828125 20.621094 14.746094 20.558594 L 13.125 19.253906 C 11.945312 18.308594 10.894531 17.214844 9.992188 16 M 17.253906 20.558594 C 17.175781 20.621094 17.089844 20.679688 17 20.730469 L 17 22 L 25 22 L 25 16 L 22.007812 16 C 21.105469 17.214844 20.054688 18.308594 18.875 19.253906 Z M 7.054688 8 L 3 8 C 2.449219 8 2 8.449219 2 9 L 2 14 L 8.71875 14 C 7.746094 12.140625 7.175781 10.09375 7.054688 8 M 29 8 L 24.945312 8 C 24.824219 10.097656 24.253906 12.140625 23.277344 14 L 30 14 L 30 9 C 30 8.449219 29.550781 8 29 8 M 13.75 18.476562 L 15.371094 19.777344 C 15.738281 20.074219 16.261719 20.074219 16.628906 19.777344 L 18.246094 18.476562 C 22.011719 15.453125 24 11.484375 24 7 C 24 6.640625 23.808594 6.308594 23.496094 6.132812 L 16.496094 2.132812 C 16.1875 1.957031 15.8125 1.957031 15.503906 2.132812 L 8.503906 6.132812 C 8.191406 6.308594 8 6.640625 8 7 C 8 11.484375 9.988281 15.453125 13.75 18.476562 M 13.292969 9.292969 C 13.683594 8.902344 14.316406 8.902344 14.707031 9.292969 L 15.890625 10.476562 L 18.199219 7.398438 C 18.53125 6.957031 19.15625 6.867188 19.601562 7.199219 C 20.042969 7.53125 20.132812 8.15625 19.800781 8.601562 L 16.800781 12.601562 C 16.625 12.832031 16.359375 12.976562 16.070312 12.996094 C 15.78125 13.019531 15.496094 12.914062 15.292969 12.707031 L 13.292969 10.707031 C 12.902344 10.316406 12.902344 9.683594 13.292969 9.292969 "/>
</g>
</svg>

<svg role="img" viewBox="0 0 32 32" xmlns="http://www.w3.org/2000/svg"><path d="M2 29a1 1 0 0 0 1 1h7v-6H2zm10-5h8v6h-8zm10 6h7a1 1 0 0 0 1-1v-5h-8zm5-14h3v6h-3zM2 16h3v6H2zm7.994 0H7v6h8v-1.271a1.984 1.984 0 0 1-.253-.17l-1.622-1.304A17.651 17.651 0 0 1 9.994 16m7.26 4.559c-.08.064-.166.12-.254.17V22h8v-6h-2.994a17.655 17.655 0 0 1-3.131 3.255zM7.055 8H3a1 1 0 0 0-1 1v5h6.72a14.754 14.754 0 0 1-1.664-6M29 8h-4.056a14.743 14.743 0 0 1-1.665 6H30V9a1 1 0 0 0-1-1M13.751 18.476l1.622 1.303a.999.999 0 0 0 1.254 0l1.621-1.303C22.011 15.453 24 11.484 24 7a1 1 0 0 0-.504-.868l-7-4a1 1 0 0 0-.992 0l-7 4A1 1 0 0 0 8 7c0 4.484 1.99 8.453 5.751 11.476m-.458-9.183a1 1 0 0 1 1.414 0l1.184 1.185L18.2 7.4a.999.999 0 1 1 1.6 1.2l-3 4a.999.999 0 0 1-1.507.107l-2-2a1 1 0 0 1 0-1.414"/></svg>
